img/icon-login.svg

<svg width="20" height="18" viewBox="0 0 20 18" fill="none" xmlns="http://www.w3.org/2000/svg">
<path d="M14.1667 9L5.71429 0.5V6.5H0V11.5H5.71429V17.5L14.1667 9Z" fill="#C5C5C5"/>
<path d="M16.1771 15.51H11.3895V17.5H16.1771C18.2514 17.5 19.0381 15.69 19.0619 14.474V3.528C19.0381 2.311 18.2514 0.5 16.1771 0.5H11.3895V2.49H16.1771C16.9762 2.49 17.1219 3.171 17.1391 3.547V14.451C17.1229 14.827 16.9762 15.51 16.1771 15.51Z" fill="#C5C5C5"/>
</svg>

<svg width="20" height="18" fill="none" xmlns="http://www.w3.org/2000/svg"><path d="M14.17 9L5.7.5v6H0v5h5.71v6L14.17 9z" fill="#C5C5C5"/><path d="M16.18 15.51h-4.79v1.99h4.79c2.07 0 2.86-1.81 2.88-3.03V3.53C19.04 2.3 18.26.5 16.18.5h-4.79v1.99h4.79c.8 0 .94.68.96 1.06v10.9c-.02.38-.16 1.06-.96 1.06z" fill="#C5C5C5"/></svg>
